packages/dnb-ui-lib/assets/icons/widget_android_medium.svg

<svg width="24" height="24" viewBox="0 0 24 24" fill="none" xmlns="http://www.w3.org/2000/svg">
<path d="M2 3.61933C2 3.05536 2.45718 2.59818 3.02115 2.59818H9.14804C9.712 2.59818 10.1692 3.05536 10.1692 3.61933V9.74622C10.1692 10.3102 9.712 10.7674 9.14804 10.7674H3.02115C2.45718 10.7674 2 10.3102 2 9.74622V3.61933Z" stroke="black" stroke-width="1.5"/>
<path d="M12.9335 7.40484C12.5348 7.00605 12.5348 6.3595 12.9335 5.96071L16.5952 2.29909C16.9939 1.9003 17.6405 1.9003 18.0393 2.29909L21.7009 5.96071C22.0997 6.3595 22.0997 7.00605 21.7009 7.40484L18.0393 11.0665C17.6405 11.4652 16.9939 11.4652 16.5952 11.0665L12.9335 7.40484Z" stroke="black" stroke-width="1.5"/>
<path d="M2 14.852C2 14.288 2.45718 13.8308 3.02115 13.8308H9.14804C9.712 13.8308 10.1692 14.288 10.1692 14.852V20.9789C10.1692 21.5428 9.712 22 9.14804 22H3.02115C2.45718 22 2 21.5428 2 20.9789V14.852Z" stroke="black" stroke-width="1.5"/>
<path d="M13.2326 14.852C13.2326 14.288 13.6898 13.8308 14.2538 13.8308H20.3807C20.9446 13.8308 21.4018 14.288 21.4018 14.852V20.9789C21.4018 21.5428 20.9446 22 20.3807 22H14.2538C13.6898 22 13.2326 21.5428 13.2326 20.9789V14.852Z" stroke="black" stroke-width="1.5"/>
</svg>

<svg width="24" height="24" viewBox="0 0 24 24" fill="none" xmlns="http://www.w3.org/2000/svg"><path d="M2 3.62c0-.565.457-1.022 1.021-1.022h6.127a1.02 1.02 0 011.021 1.021v6.127a1.02 1.02 0 01-1.021 1.021H3.021A1.021 1.021 0 012 9.747V3.618zm10.934 3.785a1.021 1.021 0 010-1.444l3.661-3.662a1.021 1.021 0 011.444 0l3.662 3.662a1.021 1.021 0 010 1.444l-3.662 3.661a1.021 1.021 0 01-1.444 0l-3.661-3.661zM2 14.852a1.02 1.02 0 011.021-1.021h6.127a1.02 1.02 0 011.021 1.021v6.127A1.02 1.02 0 019.148 22H3.021A1.021 1.021 0 012 20.979v-6.127zm11.233 0a1.02 1.02 0 011.02-1.021h6.128c.564 0 1.02.457 1.02 1.021v6.127A1.02 1.02 0 0120.381 22h-6.127a1.021 1.021 0 01-1.021-1.021v-6.127z" stroke="#000" stroke-width="1.5"/></svg>
